src/main/resources/icons/Ini4ideaIcons/icons/ini_list_of_directives.svg

<svg xmlns="http://www.w3.org/2000/svg" width="16" height="16" viewBox="0 0 16 16"><rect id="frame" width="16" height="16" fill="none"/><g fill="none" fill-rule="evenodd"><path fill="#9AA7B0" fill-opacity=".6" d="M1 2h14v11H1z"/><path fill="#231F20" fill-opacity=".7" d="M4.504 10.088C3.712 10.088 3 9.632 3 8.784v-.016c0-.912.72-1.36 1.752-1.36.472 0 .808.072 1.136.176V7.48c0-.6-.368-.92-1.048-.92-.472 0-.824.104-1.208.264l-.264-.76a3.667 3.667 0 0 1 1.6-.344c.632 0 1.104.168 1.4.472.312.304.456.752.456 1.304V10H5.88v-.528c-.288.344-.728.616-1.376.616zm.24-.704c.64 0 1.128-.368 1.128-.904v-.288a2.684 2.684 0 0 0-.96-.168c-.624 0-.992.264-.992.704v.016c0 .408.36.64.824.64z"/><path fill="#231F20" fill-opacity=".7" d="M11.416 10.088c-.704 0-1.144-.352-1.44-.744V10H9V4h.976v2.48c.312-.44.752-.792 1.44-.792.992 0 1.96.784 1.96 2.192v.016c0 1.4-.96 2.192-1.96 2.192zm-.084-.84c.664 0 1.208-.52 1.208-1.352V7.88c0-.816-.56-1.352-1.208-1.352-.656 0-1.232.544-1.232 1.352v.016c0 .808.576 1.352 1.232 1.352z" opacity=".9"/></g></svg>

<svg xmlns="http://www.w3.org/2000/svg" width="16" height="16" viewBox="0 0 16 16">
  <g fill="none" fill-rule="evenodd">
    <rect width="14" height="11" x="1" y="2" fill="#9AA7B0" fill-opacity=".6"/>
    <path fill="#231F20" fill-opacity=".7" d="M4.504,10.088 C3.712,10.088 3,9.632 3,8.784 L3,8.768 C3,7.856 3.72,7.408 4.752,7.408 C5.224,7.408 5.56,7.48 5.888,7.584 L5.888,7.48 C5.888,6.88 5.52,6.56 4.84,6.56 C4.368,6.56 4.016,6.664 3.632,6.824 L3.368,6.064 C3.84,5.856 4.296,5.72 4.968,5.72 C5.6,5.72 6.072,5.888 6.368,6.192 C6.68,6.496 6.824,6.944 6.824,7.496 L6.824,10 L5.88,10 L5.88,9.472 C5.592,9.816 5.152,10.088 4.504,10.088 Z M4.744,9.384 C5.384,9.384 5.872,9.016 5.872,8.48 L5.872,8.192 C5.624,8.096 5.296,8.024 4.912,8.024 C4.288,8.024 3.92,8.288 3.92,8.728 L3.92,8.744 C3.92,9.152 4.28,9.384 4.744,9.384 Z"/>
    <path fill="#231F20" fill-opacity=".7" d="M11.416,10.088 C10.712,10.088 10.272,9.736 9.976,9.344 L9.976,10 L9,10 L9,4 L9.976,4 L9.976,6.48 C10.288,6.04 10.728,5.688 11.416,5.688 C12.408,5.688 13.376,6.472 13.376,7.88 L13.376,7.896 C13.376,9.296 12.416,10.088 11.416,10.088 Z M11.332,9.248 C11.996,9.248 12.54,8.728 12.54,7.896 L12.54,7.88 C12.54,7.064 11.98,6.528 11.332,6.528 C10.676,6.528 10.1,7.072 10.1,7.88 L10.1,7.896 C10.1,8.704 10.676,9.248 11.332,9.248 Z" opacity=".9"/>
  </g>
</svg>
